dist/images/footer/linkedin.svg

<svg width="42" height="41" viewBox="0 0 42 41" fill="none" xmlns="http://www.w3.org/2000/svg">
<path d="M36.1989 4.48291H6.73982C6.03136 4.48291 5.45898 5.05528 5.45898 5.76374V35.2229C5.45898 35.9313 6.03136 36.5037 6.73982 36.5037H36.1989C36.9074 36.5037 37.4798 35.9313 37.4798 35.2229V5.76374C37.4798 5.05528 36.9074 4.48291 36.1989 4.48291ZM14.9571 31.7686H10.2061V16.4867H14.9571V31.7686ZM12.5836 14.3973C12.039 14.3973 11.5065 14.2358 11.0537 13.9332C10.6008 13.6307 10.2479 13.2006 10.0394 12.6974C9.83101 12.1942 9.77648 11.6405 9.88273 11.1063C9.98899 10.5721 10.2513 10.0815 10.6364 9.69634C11.0215 9.31121 11.5122 9.04894 12.0464 8.94268C12.5806 8.83643 13.1342 8.89096 13.6374 9.09939C14.1406 9.30782 14.5707 9.66078 14.8733 10.1136C15.1759 10.5665 15.3374 11.0989 15.3374 11.6436C15.3334 13.1645 14.1006 14.3973 12.5836 14.3973ZM32.7447 31.7686H27.9976V24.3358C27.9976 22.5626 27.9656 20.2852 25.528 20.2852C23.0584 20.2852 22.6782 22.2144 22.6782 24.2077V31.7686H17.9351V16.4867H22.49V18.5761H22.5541C23.1865 17.3753 24.7355 16.1065 27.049 16.1065C31.8601 16.1065 32.7447 19.2725 32.7447 23.3872V31.7686Z" fill="white"/>
</svg>

<svg width="42" height="41" fill="none" xmlns="http://www.w3.org/2000/svg"><path d="M36.199 4.483H6.739a1.28 1.28 0 00-1.28 1.28v29.46c0 .708.572 1.28 1.28 1.28H36.2a1.28 1.28 0 001.28-1.28V5.763a1.28 1.28 0 00-1.28-1.28zM14.957 31.769h-4.75V16.487h4.75v15.282zm-2.373-17.372a2.754 2.754 0 110-5.507 2.754 2.754 0 010 5.507zm20.16 17.372h-4.746v-7.433c0-1.773-.032-4.05-2.47-4.05-2.47 0-2.85 1.928-2.85 3.922v7.56h-4.743v-15.28h4.555v2.09h.064c.633-1.202 2.181-2.47 4.495-2.47 4.811 0 5.696 3.166 5.696 7.28v8.382z" fill="#fff"/></svg>
